resources/svg/pantone-fill.svg

<svg fill="currentColor" viewBox="0 0 24 24" xmlns="http://www.w3.org/2000/svg"><path d="M4.0007 18.9222L2.65105 18.3769C2.13898 18.17 1.89158 17.5872 2.09847 17.0751L4.0007 12.367V18.9222ZM8.86036 20.9999H7.0007C6.44841 20.9999 6.0007 20.5522 6.0007 19.9999V13.922L8.86036 20.9999ZM6.02251 5.96758L15.2943 2.22152C15.8064 2.01463 16.3892 2.26203 16.5961 2.7741L22.2152 16.6819C22.4221 17.1939 22.1747 17.7768 21.6627 17.9836L12.3908 21.7297C11.8788 21.9366 11.2959 21.6892 11.089 21.1771L5.46993 7.26937C5.26304 6.75731 5.51044 6.17447 6.02251 5.96758ZM9.0007 8.99992C9.55298 8.99992 10.0007 8.55221 10.0007 7.99992C10.0007 7.44764 9.55298 6.99992 9.0007 6.99992C8.44841 6.99992 8.0007 7.44764 8.0007 7.99992C8.0007 8.55221 8.44841 8.99992 9.0007 8.99992Z"/></svg>

<svg xmlns="http://www.w3.org/2000/svg" viewBox="0 0 24 24" fill="currentColor">
    <g>
        <path fill="none" d="M0 0h24v24H0z"/>
        <path d="M4 18.922l-1.35-.545a1 1 0 0 1-.552-1.302L4 12.367v6.555zM8.86 21H7a1 1 0 0 1-1-1v-6.078L8.86 21zM6.022 5.968l9.272-3.746a1 1 0 0 1 1.301.552l5.62 13.908a1 1 0 0 1-.553 1.302L12.39 21.73a1 1 0 0 1-1.302-.553L5.47 7.27a1 1 0 0 1 .553-1.301zM9 9a1 1 0 1 0 0-2 1 1 0 0 0 0 2z"/>
    </g>
</svg>
